material/.icons/material/food-croissant.svg

<svg xmlns="http://www.w3.org/2000/svg" viewBox="0 0 24 24"><path d="M22 19l-3-2 3-2v4m-7-4l4-6 3 4-4 3-3-1M5 17l-3 2v-4l3 2m4-2l-3 1-4-3 3-4 4 6m5-9l4 2-5 7h-2L6 8l4-2h4z"/></svg>

<?xml version="1.0" encoding="UTF-8"?><!DOCTYPE svg PUBLIC "-//W3C//DTD SVG 1.1//EN" "http://www.w3.org/Graphics/SVG/1.1/DTD/svg11.dtd"><svg xmlns="http://www.w3.org/2000/svg" xmlns:xlink="http://www.w3.org/1999/xlink" version="1.1" id="mdi-food-croissant" width="24" height="24" viewBox="0 0 24 24"><path d="M22,19L19,17L22,15V19M15,15L19,9L22,13L18,16L15,15M5,17L2,19V15L5,17M9,15L6,16L2,13L5,9L9,15M14,6L18,8L13,15H11L6,8L10,6H14Z" /></svg>
